X:7502
T:The Gravel Walks
R:reel
M:4/4
L:1/8
Q:1/4=180
K:Ador
|:"Am"A2eA (3cBA eA|A2 eA "G"BAGB|"Am"A2 eA Bdef|"G"gedc BAGB:|
"Am"A2 aA gAfA|A2eA "G"BAGB|"Am"A2 aA gAfa|"G"gedc BAGB|
"Am"A2 aA gAfA|A2eA "G"BAGB|"Am"A2 aA gAfa|"G"gedc BAGB|
|:"Am"(3cBA BG A2 AB|cAAc "G"BGBd|"Am"cAAG A2 ef|"G"gfge dBGB:|
K:C
|:"C"c2ec acgc|c2gc "G"BAGB|"C"c2gc acga|"Am"gedc "G"BAGB|"C"c2ec acgc|
c2gc "G"BAGB|"Am" ABcd egfa|"G"gedc BAGB:|

